icons/svg/seamark/waterfall.svg

<?xml version="1.0" encoding="UTF-8" standalone="no"?>
<svg
   xmlns:dc="http://purl.org/dc/elements/1.1/"
   xmlns:cc="http://creativecommons.org/ns#"
   xmlns:rdf="http://www.w3.org/1999/02/22-rdf-syntax-ns#"
   xmlns:svg="http://www.w3.org/2000/svg"
   xmlns="http://www.w3.org/2000/svg"
   xmlns:sodipodi="http://sodipodi.sourceforge.net/DTD/sodipodi-0.dtd"
   xmlns:inkscape="http://www.inkscape.org/namespaces/inkscape"
   width="580"
   height="580"
   id="svg2"
   version="1.1"
   inkscape:version="0.48.4 r9939"
   sodipodi:docname="waterfall.svg">
  <defs
     id="defs13">
    <inkscape:path-effect
       effect="gears"
       id="path-effect3774"
       is_visible="true"
       teeth="6"
       phi="-1.2" />
    <inkscape:path-effect
       effect="bend_path"
       id="path-effect3772"
       is_visible="false"
       bendpath="m 95.790098,316.51174 c 144.429032,-206.42506 223.313032,-11.7428 339.548092,0"
       prop_scale="1.19"
       scale_y_rel="false"
       vertical="false"
       bendpath-nodetypes="cc" />
  </defs>
  <sodipodi:namedview
     pagecolor="#ffffff"
     bordercolor="#666666"
     borderopacity="1"
     objecttolerance="10"
     gridtolerance="10"
     guidetolerance="10"
     inkscape:pageopacity="0"
     inkscape:pageshadow="2"
     inkscape:window-width="1920"
     inkscape:window-height="1004"
     id="namedview11"
     showgrid="false"
     inkscape:zoom="0.8137931"
     inkscape:cx="-40.83867"
     inkscape:cy="304.03887"
     inkscape:window-x="1680"
     inkscape:window-y="0"
     inkscape:window-maximized="1"
     inkscape:current-layer="svg2" />
  <metadata
     id="metadata2975">image/svg+xmlen<rdf:RDF>
  <cc:Work
     rdf:about="">
    <dc:format>image/svg+xml</dc:format>
    <dc:type
       rdf:resource="http://purl.org/dc/dcmitype/StillImage" />
    <dc:title />
  </cc:Work>
</rdf:RDF>
</metadata>
  <path
     inkscape:connector-curvature="0"
     d="m 178.51565,337.49123 -47.779,0 c -35.037937,79.63169 133.78122,106.70645 208.63497,84.40959 -31.85266,1.59262 -222.96866,-28.66742 -160.85597,-84.40959 z"
     id="path5" />
  <path
     inkscape:connector-curvature="0"
     d="m 363.26114,289.71225 v 47.77898 c 19.11158,0 38.22319,7.9632 38.22319,27.0748 0,27.07475 -117.85488,33.44528 -117.85488,33.44528 87.59484,11.14844 149.70756,-9.5558 149.70756,-44.59373 0,-35.03794 -31.85268,-63.70533 -70.07587,-63.70533 z"
     id="path7" />
  <path
     inkscape:connector-curvature="0"
     class="st0"
     d="m 369.63166,305.63857 c 58.92744,0 95.55802,44.59373 95.55802,79.63169 0,52.55688 -89.18748,79.63166 -183.15285,79.63166 -93.96536,0 -167.22651,-36.63057 -167.22651,-79.63166 0,-25.48214 23.88948,-63.70535 63.70533,-63.70535"
     id="path9"
     style="fill:none;stroke:#000000;stroke-width:33.00368881;stroke-miterlimit:4;stroke-opacity:1;stroke-dasharray:none" />
  <g
     id="g11"
     transform="matrix(15.926334,0,0,15.926334,98.883998,98.596234)">
    <path
       inkscape:connector-curvature="0"
       d="M 9,1 C 9,1 6.1,0 0,0 V 18 C 1.1,14.9 5,14 5,14 5,4.9 9,1 9,1 z"
       id="path13" />
  </g>
  <g
     id="g15"
     transform="matrix(15.926334,0,0,15.926334,98.883998,98.596234)">
    <path
       inkscape:connector-curvature="0"
       d="m 18,1 c 0,0 2.7,-1 6,-1 V 17.9 C 24,16.7 20.6,15 16,15 16,7.9 16.9,3.5 18,1 z"
       id="path17" />
  </g>
  <path
     inkscape:connector-curvature="0"
     d="m 345.74217,114.52256 c -33.4453,0 -55.74217,105.1138 -55.74217,238.89502 0,7.96316 6.37053,15.92633 15.92633,15.92633 h 0 c 7.96316,0 15.92633,-6.37052 15.92633,-15.92633 0,-95.55801 9.55582,-229.33922 39.81582,-238.89502 l -15.92631,0 z"
     id="path19" />
  <path
     inkscape:connector-curvature="0"
     d="m 291.59262,114.52256 c -31.85266,0 -81.22431,82.81693 -81.22431,238.89502 0,7.96316 6.37053,15.92633 15.92634,15.92633 h 0 c 7.96317,0 15.92632,-6.37052 15.92632,-15.92633 0,-152.89283 33.44533,-229.33922 63.70536,-238.89502 l -14.33371,0 z"
     id="path21" />
</svg>

<svg width="580" height="580" viewBox="0 0 580 580" fill="none" xmlns="http://www.w3.org/2000/svg">
<path d="M178.516 337.492H130.737C95.6987 417.124 264.518 444.199 339.372 421.902C307.519 423.494 116.403 393.234 178.516 337.492Z" fill="black"/>
<path d="M363.261 289.713V337.492C382.373 337.492 401.484 345.455 401.484 364.567C401.484 391.641 283.629 398.012 283.629 398.012C371.224 409.16 433.337 388.456 433.337 353.418C433.337 318.38 401.484 289.713 363.261 289.713Z" fill="black"/>
<path d="M369.632 305.639C428.559 305.639 465.19 350.232 465.19 385.27C465.19 437.827 376.002 464.902 282.037 464.902C188.071 464.902 114.81 428.271 114.81 385.27C114.81 359.788 138.7 321.565 178.516 321.565" stroke="black" stroke-width="33.0037"/>
<path d="M242.221 114.522C242.221 114.522 196.035 98.5957 98.884 98.5957V385.27C116.403 335.898 178.516 321.564 178.516 321.564C178.516 176.635 242.221 114.522 242.221 114.522Z" fill="black"/>
<path d="M385.558 114.522C385.558 114.522 428.559 98.5957 481.116 98.5957V383.677C481.116 364.565 426.966 337.491 353.705 337.491C353.705 224.414 368.039 154.338 385.558 114.522Z" fill="black"/>
<path d="M345.742 114.523C312.297 114.523 290 219.637 290 353.418C290 361.382 296.371 369.345 305.926 369.345C313.889 369.345 321.853 362.974 321.853 353.418C321.853 257.86 331.408 124.079 361.668 114.523H345.742V114.523Z" fill="black"/>
<path d="M291.593 114.523C259.74 114.523 210.368 197.34 210.368 353.418C210.368 361.382 216.739 369.345 226.295 369.345C234.258 369.345 242.221 362.974 242.221 353.418C242.221 200.526 275.666 124.079 305.926 114.523H291.593Z" fill="black"/>
</svg>
